X: 20392
T: Robins Complaint
%R: air, waltz
B: James Oswald "The Caledonian Pocket Companion" v.2 p.38 #2
Z: 2019 John Chambers <jc:trillian.mit.edu>
M: 3/4
L: 1/8
K: D
%%slurgraces 1
%%graceslurs 1
"_Slow"DFG |\
(A2 B)c {e}d(c/B/) | {B}A3 G TFE | D3 E FG | {F}E3 D FG |\
(A2 B)c de | (d2 c)EF^G | (A2 B)c {e}dc/B/ | A3 :|
|: AEF |\
(G2 A)B (TAG) | {G}F3 G AD | {D}B3 A TGF | {F}E3 D FG |\
A3 B =cd | (=c2 B)A B(d/^c/) | d3 F {A}G(F/E/) | D3 :|


